carriers/gls.svg

<svg width="128" height="64" viewBox="0 0 128 64" fill="none" xmlns="http://www.w3.org/2000/svg">
<rect width="128" height="64" rx="6" fill="white"/>
<path d="M98.4438 45.06C100.825 45.06 102.756 43.1295 102.756 40.748C102.756 38.3666 100.825 36.436 98.4438 36.436C96.0624 36.436 94.1318 38.3666 94.1318 40.748C94.1318 43.1295 96.0624 45.06 98.4438 45.06Z" fill="#FFCD00"/>
<path d="M37.7041 31.136V36.84H42.3961C42.0063 37.3341 41.5142 37.738 40.9535 38.0238C40.3929 38.3097 39.777 38.4708 39.1481 38.496C35.5481 38.496 33.8441 36.444 33.8441 32.396C33.8441 27.8867 36.1655 25.632 40.8081 25.632C42.6641 25.632 45.0521 26.1 47.6361 26.892V20C46.5614 19.6195 45.4502 19.3514 44.3201 19.2C43.0072 18.9729 41.6766 18.8631 40.3441 18.872C35.7681 18.872 32.1201 20.132 29.3361 22.584C26.5521 25.036 25.2441 28.352 25.2441 32.66C25.2441 36.508 26.2988 39.5574 28.4081 41.808C30.5201 44.064 33.3801 45.2 37.0281 45.2C40.6761 45.2 43.9881 43.34 45.1241 40.956V44.736H50.3601V31.136H37.7041Z" fill="#0033A1"/>
<path d="M52.9561 44.728V19.332H61.1121V38.168H69.9961V44.8H52.9561V44.728Z" fill="#0033A1"/>
<path d="M72.58 44.132V37.172C73.95 37.5952 75.3463 37.9279 76.76 38.168C78.1403 38.4132 79.5381 38.547 80.94 38.568C82.94 38.568 83.988 38.104 83.988 37.16C83.988 36.564 83.72 36.3 82.264 35.96L79.412 35.296C74.572 34.168 72.252 31.696 72.252 27.604C72.252 24.888 73.18 22.7 75.1 21.108C77.02 19.516 79.596 18.8 82.86 18.8C85.5126 18.8691 88.1514 19.2068 90.736 19.808V26.428C89.4055 26.0792 88.055 25.812 86.692 25.628C85.4704 25.4234 84.2345 25.3164 82.996 25.308C81.272 25.308 80.276 25.772 80.276 26.716C80.276 27.248 80.74 27.58 81.684 27.848L84.932 28.576C89.708 29.7 92.028 32.224 92.028 36.4C92.028 39.116 91.032 41.176 89.112 42.764C87.192 44.352 84.468 45.084 81.02 45.084C77.688 45.2 74.44 44.728 72.58 44.132Z" fill="#0033A1"/>
</svg>

<svg xmlns="http://www.w3.org/2000/svg" width="128" height="64" fill="none"><rect width="128" height="64" fill="#fff" rx="6"/><path fill="#FFCD00" d="M98.444 45.06a4.312 4.312 0 1 0 0-8.625 4.312 4.312 0 0 0 0 8.625Z"/><path fill="#0033A1" d="M37.704 31.136v5.704h4.692a4.359 4.359 0 0 1-3.248 1.656c-3.6 0-5.304-2.052-5.304-6.1 0-4.51 2.322-6.764 6.964-6.764 1.856 0 4.244.468 6.828 1.26V20a16.5 16.5 0 0 0-3.316-.8 22.448 22.448 0 0 0-3.976-.328c-4.576 0-8.224 1.26-11.008 3.712-2.784 2.452-4.092 5.768-4.092 10.076 0 3.848 1.055 6.897 3.164 9.148 2.112 2.256 4.972 3.392 8.62 3.392 3.648 0 6.96-1.86 8.096-4.244v3.78h5.236v-13.6H37.704ZM52.956 44.728V19.332h8.156v18.836h8.884V44.8h-17.04v-.072ZM72.58 44.132v-6.96c1.37.423 2.766.756 4.18.996 1.38.245 2.778.379 4.18.4 2 0 3.048-.464 3.048-1.408 0-.596-.268-.86-1.724-1.2l-2.852-.664c-4.84-1.128-7.16-3.6-7.16-7.692 0-2.716.928-4.904 2.848-6.496 1.92-1.592 4.496-2.308 7.76-2.308 2.653.07 5.291.407 7.876 1.008v6.62a33.755 33.755 0 0 0-4.044-.8 23.333 23.333 0 0 0-3.696-.32c-1.724 0-2.72.464-2.72 1.408 0 .532.464.864 1.408 1.132l3.248.728c4.776 1.124 7.096 3.648 7.096 7.824 0 2.716-.996 4.776-2.916 6.364s-4.644 2.32-8.092 2.32c-3.332.116-6.58-.356-8.44-.952Z"/></svg>
